!!!!SEGMENT: pl-kk--kk-i-6--021_anonim--regina-caeli-laetare.krn
!!!cenid: 16xx:976
!!!COM: Anonim
!!!COM-rismid: pe30004985
!!!CDT:
!!!CNT:
!!!OTL: Regina caeli laetare
!!!PDT:
!!!AGN: Sacred
!!!SMS-siglum: PL-Kk
!!!SMS-shelfmark: Kk.I.6
!!!SMS-shelfwork: 021 W
!!!SMS-variant:
!!!SMS-altvar:
!!!NIFC-rismid: 1001135807
!!!URL-scan: http://repozytorium.nifc.pl/skany/pl-kk-nut--i-6
!!!ONB-nifc: UWAGA: C (skan 0015-0016, s. 27-28), T (skan 0118-0119, s. 40-42), B (skan 0229, s. 38-39) Następny utwór: Stella caeli
!!!key:
**kern	**text	**kern	**text	**kern	**text
*part3	*part3	*part2	*part2	*part1	*part1
*staff3	*staff3	*staff2	*staff2	*staff1	*staff1
*Iempty	*	*Itenor	*	*Ivox	*
*I"Baſsus.	*	*I"Tenor.	*	*I"Cantus.	*
*I'B	*	*I'T	*	*I'S	*
*clefF4	*	*clefC3	*	*clefC4	*
*k[b-]	*	*k[b-]	*	*k[b-]	*
*F:	*	*F:	*	*F:	*
*M2/1	*	*M2/1	*	*M2/1	*
*met(C|)	*	*met(C|)	*	*met(C|)	*
=1-	=1-	=1-	=1-	=1-	=1-
!LO:TX:t=P:problem=4/, 8/middle or right&colon; global	!	!LO:TX:t=P:problem=4/middle or right&colon; global	!	!	!
!LO:TX:t=P:problem=2\, 4\middle&colon; global	!	!LO:TX:t=P:problem=2\, 4\middle&colon; global	!	!LO:TX:t=P:problem=w źródle przed kluczem inicjał R	!
!LO:TX:t=P:problem=w źródle przed kluczem inicjał R	!	!LO:TX:t=P:problem=w źródle przed kluczem inicjał R	!	!	!
00r	.	0r	.	1F	Re-
.	.	.	.	1G	-gi-
=2-	=2-	=2-	=2-	=2-	=2-
.	.	2r	.	1F,<	-na
.	.	2f\	Re-	.	.
*	*	*	*	*lig	*
.	.	2d\	-gi-	1G	Cae-
.	.	2e\	-na	.	.
=3-	=3-	=3-	=3-	=3-	=3-
1F	Re-	1f	Cae-	1A	.
*	*	*	*	*Xlig	*
1.D	-gi-	2f\	-li	1A,<	-li
.	.	2d\	lae-	.	.
=4-	=4-	=4-	=4-	=4-	=4-
.	.	2d\	-ta-	1B-	lae-
2E\	-na	2G/	-re	.	.
*	*	*	*	*lig	*
1F	Cae-	0c	Al-	1A	-ta-
=5-	=5-	=5-	=5-	=5-	=5-
2C/	-li	.	.	1G	.
2C/	lae-	.	.	.	.
*	*	*	*	*Xlig	*
*	*	*	*	*lig	*
!	!	!LO:SIC:v:custos:A	!	!	!
4GG/	-ta-	0d	-le-	1B-	.
4AA/	.	.	.	.	.
4BB-/	.	.	.	.	.
!LO:SIC:v:custos:D	!	!	!	!	!
4C/	.	.	.	.	.
!LO:LB:g=original	!	!	!	!	!
=6-	=6-	=6-	=6-	=6-	=6-
1.D	.	.	.	1A	.
*	*	*	*	*Xlig	*
!	!	!LO:LB:g=original	!	!	!
!	!	!	!	!LO:SIC:v:custsos:G	!
.	.	2.A/	-lu-	1F	.
2D/	-re	.	.	.	.
.	.	4B-/	.	.	.
!	!	!	!	!LO:LB:g=original	!
=7-	=7-	=7-	=7-	=7-	=7-
*	*	*	*	*lig	*
2C/	Al-	2c/	.	1G	.
2BB-/	-le-	2d\	.	.	.
1C	-lu-	1G	.	1E	.
*	*	*	*	*Xlig	*
=8-	=8-	=8-	=8-	=8-	=8-
2FF/	-ia	1A	-ia	1F,<	-re
2F\	lae-	.	.	.	.
2G\	-ta-	2rA	.	1B-	Al-
2D/	-re	2d\	lae-	.	.
=9-	=9-	=9-	=9-	=9-	=9-
4E-X\	Al-	1B-	-ta-	1G	-le-
8D/L	.	.	.	.	.
8C/J	.	.	.	.	.
4BB-/	.	.	.	.	.
4C/	.	.	.	.	.
*	*	*	*	*lig	*
2D/	.	2A/	-re	1F	.
2BB-/	-le-	2B-/	Al-	.	.
=10-	=10-	=10-	=10-	=10-	=10-
2.C/	-lu-	2.G/	-le-	1E	.
8BB-/L	.	4A/	.	.	.
!LO:SIC:v:custos:GG	!	!	!	!	!
8AA/J	.	.	.	.	.
!LO:LB:g=original	!	!	!	!	!
*	*	*	*	*Xlig	*
1GG	-ia	4B-/	.	1G	-lu-
.	.	4c/	.	.	.
.	.	1d\	.	.	.
=11-	=11-	=11-	=11-	=11-	=11-
*	*	*	*	*lig	*
*	*ij	*	*	*	*
2.D/	Al-	.	.	1A	.
.	.	2A/	.	.	.
4C/	le-	.	.	.	.
*lig	*	*lig	*	*	*
1BB#X	-lu-	1d	-lu-	1G	.
*	*	*	*	*Xlig	*
=12-	=12-	=12-	=12-	=12-	=12-
1C	.	1c	.	1E	.
*Xlig	*	*Xlig	*	*	*
!	!	!LO:SIC:v:custos:F	!	!	!
1FF	-ia	1A	-ia	1F,<	-ia
*	*Xij	*	*	*	*
!	!	!LO:LB:g=original	!	!	!
=13-	=13-	=13-	=13-	=13-	=13-
0rD	.	0rc	.	1F	Qui-
.	.	.	.	1c	-a
=14-	=14-	=14-	=14-	=14-	=14-
1rD	.	1F	Qui-	1c	quem
*	*	*	*	*lig	*
1BB-y	Qui-	1f	-a	1d	.
=15-	=15-	=15-	=15-	=15-	=15-
!	!	!	!	!LO:SIC:v:custos:B	!
2F\	-a	1f	quem	1c	.
2F\	quem	.	.	.	.
!	!	!	!	!LO:LB:g=original	!
*	*	*	*	*Xlig	*
2G\	me-	2d\	me-	1B-	me-
2D/	-ru-	2f\	-ru-	.	.
=16-	=16-	=16-	=16-	=16-	=16-
*lig	*	*	*	*lig	*
1F	-i-	2.c/	-i-	1A	.
.	.	4d\	.	.	.
1C	.	4e\	.	1G	.
.	.	2f\	.	.	.
.	.	4e\	.	.	.
*Xlig	*	*	*	*Xlig	*
=17-	=17-	=17-	=17-	=17-	=17-
!LO:SIC:v:custos:D	!	!	!	!	!
1FF	-ſti	2f\	-ſti	1F	-ru-
.	.	2f\	por-	.	.
!LO:LB:g=original	!	!	!	!	!
*	*	*	*	*lig	*
0r	.	4e\	-ta-	1G	-i-
.	.	4d\	.	.	.
.	.	1d\	.	.	.
=18-	=18-	=18-	=18-	=18-	=18-
.	.	.	.	1A	.
!	!	!LO:TX:t=P:problem=# below	!	!	!
.	.	2c#X/	.	.	.
*	*	*	*	*Xlig	*
1D	Qui-	1d	-re	1A,<	-ſti
=19-	=19-	=19-	=19-	=19-	=19-
2G\	-a	2d\	Al-	1B-	por-
!	!	!LO:SIC:v:custos:f	!	!	!
2G\	quem	2e\	-le-	.	.
!	!	!LO:LB:g=original	!	!	!
*	*	*	*	*lig	*
2F\	me-	1f	-lu-	1A	.
2D/	-ru-	.	.	.	.
=20-	=20-	=20-	=20-	=20-	=20-
2.E-X\	-i-	2e-X\	.	1G	.
.	.	2B-/	.	.	.
4D/	.	.	.	.	.
*	*	*	*	*Xlig	*
*	*	*	*	*lig	*
2C/	.	1cny	.	1A	.
2F\	-ſti	.	.	.	.
=21-	=21-	=21-	=21-	=21-	=21-
1BB-	por-	1f	-ia	1B-	.
*	*	*	*	*Xlig	*
*	*	*	*	*lig	*
1F	-ta-	2r	.	1c	.
.	.	2c/	Qui-	.	.
=22-	=22-	=22-	=22-	=22-	=22-
1D	-re	2f\	-a	1F	.
.	.	2f\	quem	.	.
*	*	*	*	*Xlig	*
!	!	!	!	!LO:SIC:v:custos:G	!
1C	Al-	2g\	me-	1E	.
.	.	2g\	-ru-	.	.
!	!	!	!	!LO:LB:g=original	!
=23-	=23-	=23-	=23-	=23-	=23-
2C/	-le-	2eny\	-i-	0G	-ta-
!LO:N:acc=#	!	!	!	!	!
4BBn/	-lu-	4d\	-ſti	.	.
!LO:SIC:v:custos:GG	!	!	!	!	!
4C/	-ia	4c\	por-	.	.
!LO:LB:g=original	!	!	!	!	!
4.GG/	Al-	2.d\	-ta-	.	.
8AA/	-le-	.	.	.	.
!LO:N:acc=#	!	!	!	!	!
4BBn/	-lu-	.	.	.	.
4C/	.	4e\	.	.	.
=24-	=24-	=24-	=24-	=24-	=24-
*	*	*	*	*lig	*
2FF,</	-ia	2f\	.	1F	.
2F\	Al-	4c/	-re	.	.
!	!	!LO:SIC:v:custos:e	!	!	!
.	.	4d\	.	.	.
!	!	!LO:PB:g=original	!	!	!
4C/	-le-	4e\	.	1G	.
4D/	.	4f\	.	.	.
4Eny\	.	2g\	Al-	.	.
4F\	.	.	.	.	.
*	*	*	*	*Xlig	*
=25-	=25-	=25-	=25-	=25-	=25-
*	*	*	*	*lig	*
4G\	.	2.d\	-le-	1B-	.
4GG/	.	.	.	.	.
4BB-y/	.	.	.	.	.
4C/	.	4e\	.	.	.
4D/	.	2f\	.	1A	.
4E\	.	.	.	.	.
4F\	.	1d\	.	.	.
4D/	.	.	.	.	.
*	*	*	*	*Xlig	*
=26-	=26-	=26-	=26-	=26-	=26-
1E	.	.	.	1G	.
.	.	2c/	-lu-	.	.
!LO:SIC:v:custos:C	!	!	!	!	!
*	*	*	*	*lig	*
0D	-lu-	2d\	-ia	1A	.
.	.	2.A/	Al-	.	.
=27-	=27-	=27-	=27-	=27-	=27-
.	.	.	.	1F	.
.	.	4G/	.	.	.
.	.	4A/	.	.	.
.	.	4F/	.	.	.
!LO:PB:g=original	!	!	!	!	!
*	*	*	*	*Xlig	*
*	*	*	*	*lig	*
0C	.	2c/	.	1G	.
.	.	2G/	-le-	.	.
=28-	=28-	=28-	=28-	=28-	=28-
.	.	1G	-lu-	1E	.
*	*	*	*	*Xlig	*
1FF	-ia	2A/	-ia	1F,<	-re
.	.	2c/	Al-	.	.
=29-	=29-	=29-	=29-	=29-	=29-
00r	.	4d\	-le-	1B-	Al-
.	.	4e\	.	.	.
.	.	4f\	.	.	.
!	!	!LO:SIC:v:custos:e	!	!	!
.	.	4d\	.	.	.
!	!	!LO:LB:g=original	!	!	!
.	.	2e-X\	.	1G	-le-
.	.	2d\	.	.	.
=30-	=30-	=30-	=30-	=30-	=30-
*	*	*	*	*lig	*
.	.	2f\	.	1F	.
.	.	1d	.	.	.
.	.	.	.	1E	.
.	.	2ryy	.	.	.
*	*	*	*	*Xlig	*
=31-	=31-	=31-	=31-	=31-	=31-
!	!	!LO:N:acc=#	!	!	!
1r	.	4Bn/	-lu-	1G	.
.	.	2c/	.	.	.
!	!	!LO:N:acc=#	!	!	!
!	!	!LO:TX:t=P:problem=# below	!	!	!
.	.	4Bn/	.	.	.
*	*	*	*	*lig	*
2r	.	1c	-ia	1A	.
2F\	Al-	.	.	.	.
=32-	=32-	=32-	=32-	=32-	=32-
!	!	!	!	!LO:SIC:v:custos:B	!
4D/	-le-	2r	.	1F	.
4E\	.	.	.	.	.
4F\	.	2f\	Al-	.	.
4D/	.	.	.	.	.
!	!	!	!	!LO:LB:g=original	!
*	*	*	*	*Xlig	*
1G	.	2d\	-le-	1B-	.
.	.	2eny\	-lu-	.	.
=33-	=33-	=33-	=33-	=33-	=33-
2F\	-lu-	2.f\	-ia	1A	.
2FF/	-ia	.	.	.	.
*	*	*	*ij	*	*
.	.	4f\	Al-	.	.
4C/	Al-	4e\	.	1G	.
4D/	.	4f\	.	.	.
4E-X\	.	4g\	.	.	.
4C/	.	4e\	.	.	.
=34-	=34-	=34-	=34-	=34-	=34-
*	*	*	*	*lig	*
1D	-le-	2f\	-le-	1F	.
!	!	!LO:SIC:v:custos:e	!	!	!
.	.	2d\	.	.	.
!	!	!LO:LB:g=original	!	!	!
0C	-lu-	2e\	-lu-	1E	.
.	.	2c/	.	.	.
*	*	*	*	*Xlig	*
=35-	=35-	=35-	=35-	=35-	=35-
.	.	0c,<	-ia	1G	-lu-
*	*	*	*Xij	*	*
!LO:SIC:v:custos:C	!	!	!	!	!
1FF	-ia	.	.	1F,<	-ia
!LO:LB:g=original	!	!	!	!	!
=36-	=36-	=36-	=36-	=36-	=36-
00rD	.	1d	Re-	1B-	Re-
.	.	1e	-sur-	1c	-sur-
=37-	=37-	=37-	=37-	=37-	=37-
.	.	1f	-re-	1d	-re-
*	*	*	*	*lig	*
.	.	1e	-xit	1c	.
=38-	=38-	=38-	=38-	=38-	=38-
0rD	.	2d\	Si-	1B-	.
.	.	2f\	-cut	.	.
*	*	*	*	*Xlig	*
.	.	2e\	di-	1c,<	-xit
.	.	1f\	.	.	.
=39-	=39-	=39-	=39-	=39-	=39-
1C	Re-	.	.	1c	Si-
.	.	2e\	.	.	.
1D	-sur-	1f,<	-xit	1F	-cut
=40-	=40-	=40-	=40-	=40-	=40-
1E-X	-re-	1B-y	Re-	0G	di-
1C	-xit	0c	-sur-	.	.
=41-	=41-	=41-	=41-	=41-	=41-
!	!	!	!	!LO:SIC:v:custos:B	!
1F	ſi-	.	.	1F,<	-xit
!	!	!	!	!LO:LB:g=original	!
!	!	!LO:SIC:v:a:custos:c	!	!	!
1BB-	-cut	1d	-re-	1B-	Al-
!	!	!LO:LB:g=original	!	!	!
=42-	=42-	=42-	=42-	=42-	=42-
1C	di-	1c	-xit	1G	-le-
*	*	*	*	*lig	*
2FF/	-xit	1c	ſi-	1A	.
2F\	Al-	.	.	.	.
=43-	=43-	=43-	=43-	=43-	=43-
2BB-/	-le-	1d	-cut	1B-	.
2D/	-lu-	.	.	.	.
*	*	*	*	*Xlig	*
*	*	*	*	*lig	*
2.C/	-ia	1e	di-	1c	.
4BB-/	.	.	.	.	.
=44-	=44-	=44-	=44-	=44-	=44-
*	*ij	*	*	*	*
2AA/	Al-	1f	-xit	1F	.
4GG/	.	.	.	.	.
4FF/	.	.	.	.	.
*	*	*	*	*Xlig	*
1.C	.	2r	.	1E	.
.	.	1c\	Al-	.	.
=45-	=45-	=45-	=45-	=45-	=45-
.	.	.	.	0G	-lu-
4BB-/	-le-	4G/	-le-	.	.
!LO:SIC:v:custos:GG	!	!	!	!	!
4AA/	.	4A/	.	.	.
!LO:LB:g=original	!	!	!	!	!
!	!	!LO:N:acc=#	!	!	!
!	!	!LO:TX:t=P:problem=# below	!	!	!
1GG	-lu-	4Bn/	.	.	.
.	.	2c/	-lu-	.	.
!	!	!LO:N:acc=#	!	!	!
!	!	!LO:TX:t=P:problem=# below	!	!	!
.	.	4Bn/	.	.	.
=46-	=46-	=46-	=46-	=46-	=46-
1D	-ia	1A	-ia	1F,<	-ia
*	*Xij	*	*	*	*
1r	.	1rc	.	0c	O-
=47-	=47-	=47-	=47-	=47-	=47-
2r	.	2r	.	.	.
1F	O-	1f	O-	.	.
.	.	.	.	1F	-ra
1BB-/	-ra	1d\	-ra	.	.
=48-	=48-	=48-	=48-	=48-	=48-
*	*	*	*	*lig	*
.	.	.	.	1G	pro
1C	pro	1e	pro	.	.
.	.	.	.	1A	.
1D\	no-	1f\	no-	.	.
*	*	*	*	*Xlig	*
=49-	=49-	=49-	=49-	=49-	=49-
*	*	*	*	*lig	*
.	.	.	.	1B-	no-
!	!	!LO:SIC:v:custos:f	!	!	!
2Eny\	-bis	2g\	-bis	.	.
!	!	!LO:LB:g=original	!	!	!
1F	De-	1f	De-	1A	.
*	*	*	*	*Xlig	*
=50-	=50-	=50-	=50-	=50-	=50-
*lig	*	*	*	*	*
!	!	!	!	!LO:SIC:v:custos:F	!
1C	.	4e\	.	1G	.
.	.	4d\	.	.	.
.	.	4c/	.	.	.
.	.	4B-y/	.	.	.
!	!	!	!	!LO:PB:g=original	!
*	*	*	*	*lig	*
1D	.	2A/	.	1F	-bis
.	.	2F/	.	.	.
*Xlig	*	*	*	*	*
=51-	=51-	=51-	=51-	=51-	=51-
0C	.	0c	.	1E,<	.
*	*	*	*	*Xlig	*
.	.	.	.	1G	De-
=52-	=52-	=52-	=52-	=52-	=52-
0FF	-um	0c	-um	1F,<	-um
.	.	.	.	1F	Al-
=53-	=53-	=53-	=53-	=53-	=53-
*	*	*	*	*lig	*
0rD	.	1r	.	1A	-le-
.	.	2r	.	1B-	.
.	.	2f\	Al-	.	.
*	*	*	*	*Xlig	*
=54-	=54-	=54-	=54-	=54-	=54-
1rD	.	2e\	-le-	1c	.
.	.	2e\	-lu-	.	.
*	*	*	*	*lig	*
2rC	.	4d\	-ia	1d	.
.	.	4e\	.	.	.
!LO:SIC:v:custos:AA	!	!	!	!	!
2BB-/	Al-	4f\	.	.	.
.	.	4g\	.	.	.
!LO:LB:g=original	!	!	!	!	!
=55-	=55-	=55-	=55-	=55-	=55-
2AA/	-le-	2a\	.	1c	.
2AA/	-lu-	2A/	Al-	.	.
*	*	*	*	*Xlig	*
4GG/	-ia	4B-/	-le-	1B-	.
4AA/	.	4c/	.	.	.
4BB-/	.	4d\	.	.	.
!	!	!LO:SIC:v:custos:f	!	!	!
4C/	.	4e\	.	.	.
!	!	!LO:LB:g=original	!	!	!
=56-	=56-	=56-	=56-	=56-	=56-
*	*	*	*	*lig	*
4D/	.	2f\	.	1A	.
4E\	.	.	.	.	.
2F\	Al-	2c/	-lu-	.	.
2C/	-le-	1.c	-ia	1G	.
2C/	-lu-	.	.	.	.
*	*	*	*	*Xlig	*
=57-	=57-	=57-	=57-	=57-	=57-
1FF	-ia	.	.	1A	.
.	.	2.c/	Al-	.	.
2rC	.	.	.	0c	.
.	.	4d\	.	.	.
*	*ij	*	*	*	*
2.C/	Al-	4e\	.	.	.
.	.	4f\	.	.	.
=58-	=58-	=58-	=58-	=58-	=58-
.	.	2g\	.	.	.
4D/	.	.	.	.	.
4E\	.	2e\	-le-	.	.
4F\	.	.	.	.	.
1G	.	1d	-lu-	1B-	.
=59-	=59-	=59-	=59-	=59-	=59-
*	*	*	*	*lig	*
2F\	.	1f,<	-ia	1A	.
!LO:SIC:v:custos:GG	!	!	!	!	!
2FF/	.	.	.	.	.
!LO:LB:g=original	!	!	!	!	!
4GG/	.	1B-	Al-	1G	.
4AA/	.	.	.	.	.
4BB-/	.	.	.	.	.
4C/	.	.	.	.	.
*	*	*	*	*Xlig	*
=60-	=60-	=60-	=60-	=60-	=60-
*	*	*	*	*lig	*
1D	-le-	1A	-le-	1F	-lu-
0C	-lu-	0c	-lu-	1E	.
*	*	*	*	*Xlig	*
=61-	=61-	=61-	=61-	=61-	=61-
.	.	.	.	1G	.
1FF	-ia	2c,</	-ia	[1F;;l	-ia.
.	.	1f\	Al-	.	.
=62-	=62-	=62-	=62-	=62-	=62-
2rC	.	.	.	000F_	.
!	!	!LO:SIC:v:custos:f	!	!	!
1BB-	Al-	2d\	-le-	.	.
!	!	!LO:PB:g=original	!	!	!
.	.	2.f\	-lu-	.	.
2AA/	.	.	.	.	.
.	.	4e\	.	.	.
=63-	=63-	=63-	=63-	=63-	=63-
2.D/	.	1d	.	.	.
4C/	.	.	.	.	.
2BB-/	.	1f	-ia	.	.
2AA/	.	.	.	.	.
=64-	=64-	=64-	=64-	=64-	=64-
2.BB-/	.	2r	.	.	.
*	*	*	*ij	*	*
.	.	1f	Al-	.	.
4C/	.	.	.	.	.
2D\	.	.	.	.	.
2F\	le-	2c/	-le-	.	.
=65-	=65-	=65-	=65-	=65-	=65-
0BB-	-lu-	4d\	-lu-	.	.
.	.	4c/	.	.	.
.	.	4B-/	.	.	.
.	.	4A/	.	.	.
.	.	1B-	.	.	.
=66-	=66-	=66-	=66-	=66-	=66-
0FFl;;	-ia	0Al;;	-ia	0F]	.
*	*Xij	*	*Xij	*	*
=-	=-	=-	=-	=-	=-
*-	*-	*-	*-	*-	*-
!!!system-decoration: [(s1,s2,s3)]
!!!RDF**kern: l = terminal long
!!!RDF**kern: > = above
!!!RDF**kern: < = below
!!!EED: Antoni Szymański
!!!EST: 2021-03-21
!!!AIN: 1 empty 1 tenor 1 vox
!!!ENC: Kamil Watkowski
!!!END: 2021-03-08
